public/Acronis.svg

<svg width='158' height='78' viewBox='0 0 158 78' fill='none' xmlns='http://www.w3.org/2000/svg'><g clip-path='url(#clip0_9_78440)'><path d='M0 54.536H4.823L7.142 48.786H24.255L26.528 54.536H31.351L18.18 23H13.17L0 54.536ZM11.687 37.516L12.475 35.476C13.82 32.136 14.98 29.354 15.675 27.266C16.417 29.354 17.575 32.136 18.922 35.476L19.756 37.516H11.687ZM44.243 55C50.226 55 54.956 51.707 56.443 45.771H51.664C50.644 49.017 48 50.826 44.429 50.826C39.513 50.826 36.452 47.348 36.452 42.293C36.452 37.47 39.328 33.759 44.382 33.759C48 33.759 50.551 35.429 51.617 39.186H56.394C55.328 33.11 50.644 29.586 44.475 29.586C37.287 29.586 31.722 34.733 31.722 42.293C31.722 49.62 36.545 55 44.243 55ZM60.012 54.536H64.649V41.876C64.649 37.516 65.994 34.733 70.864 34.733H71.559V29.586H71.142C69.8199 29.5792 68.5169 29.902 67.3509 30.5253C66.1849 31.1487 65.1927 32.0528 64.464 33.156L64.278 30.049H60.012V54.536ZM85.148 55C92.568 55 97.994 49.62 97.994 42.293C98.0383 40.6004 97.7353 38.9166 97.1036 37.3457C96.4719 35.7747 95.525 34.3499 94.3212 33.1592C93.1175 31.9685 91.6824 31.0371 90.1047 30.4225C88.527 29.8079 86.84 29.5232 85.148 29.586C77.913 29.586 72.3 34.78 72.3 42.293C72.3 49.62 77.727 55 85.148 55ZM101.426 54.536H106.064V40.436C106.064 36.447 108.614 33.804 112.742 33.804C116.542 33.804 118.122 35.984 118.122 39.972V54.536H122.759V39.093C122.759 33.017 119.513 29.586 113.716 29.586C112.271 29.5101 110.827 29.7393 109.476 30.2586C108.126 30.7779 106.9 31.5756 105.878 32.6L105.554 30.05H101.426V54.536ZM147.988 55C150.957 55 153.275 54.444 155.038 53.006C155.868 52.3116 156.528 51.4375 156.97 50.45C157.412 49.4624 157.623 48.3873 157.588 47.306C157.627 46.2128 157.367 45.1296 156.836 44.1733C156.305 43.217 155.523 42.4237 154.574 41.879C153.002 41.1095 151.306 40.623 149.565 40.442C147.763 40.2701 145.979 39.9442 144.232 39.468C143.68 39.3308 143.193 39.0058 142.855 38.5487C142.516 38.0916 142.347 37.531 142.377 36.963C142.377 34.877 144.186 33.346 147.246 33.346C150.122 33.346 152.346 34.737 152.626 37.566H157.032C156.754 32.233 152.951 29.59 147.246 29.59C142.006 29.59 137.925 32.326 137.925 37.52C137.855 38.6108 138.114 39.6975 138.668 40.6398C139.222 41.5822 140.045 42.337 141.032 42.807C142.79 43.5582 144.65 44.0428 146.551 44.245C148.11 44.4183 149.647 44.7445 151.142 45.219C151.724 45.3565 152.237 45.6997 152.586 46.1854C152.935 46.671 153.097 47.2664 153.042 47.862C153.042 50.134 150.863 51.248 147.987 51.248C144.509 51.248 142.144 49.948 141.68 46.981H137.18C137.646 52.774 142.006 55 147.988 55ZM127.815 54.536H132.406V30.05H127.815V54.537V54.536ZM85.2 50.826C80.469 50.826 77.083 47.348 77.083 42.246C77.083 37.47 80.098 33.759 85.153 33.759C90.115 33.759 93.269 37.423 93.269 42.246C93.269 47.162 89.977 50.826 85.2 50.826ZM8.718 44.843L10.2 41.226H21.24L22.677 44.843H8.718Z' fill='#00204D'/></g><defs><clipPath id='clip0_9_78440'><rect width='158' height='78' fill='white'/></clipPath></defs></svg>

<svg xmlns="http://www.w3.org/2000/svg" width="158" height="78" fill="none" viewBox="0 0 158 78"><g clip-path="url(#a)"><path fill="#00204d" d="M0 54.536h4.823l2.319-5.75h17.113l2.273 5.75h4.823L18.18 23h-5.01zm11.687-17.02.788-2.04c1.345-3.34 2.505-6.122 3.2-8.21.742 2.088 1.9 4.87 3.247 8.21l.834 2.04zM44.243 55c5.983 0 10.713-3.293 12.2-9.229h-4.779c-1.02 3.246-3.664 5.055-7.235 5.055-4.916 0-7.977-3.478-7.977-8.533 0-4.823 2.876-8.534 7.93-8.534 3.618 0 6.169 1.67 7.235 5.427h4.777c-1.066-6.076-5.75-9.6-11.919-9.6-7.188 0-12.753 5.147-12.753 12.707C31.722 49.62 36.545 55 44.243 55m15.769-.464h4.637v-12.66c0-4.36 1.345-7.143 6.215-7.143h.695v-5.147h-.417a7.96 7.96 0 0 0-6.678 3.57l-.186-3.107h-4.266zM85.148 55c7.42 0 12.846-5.38 12.846-12.707a12.39 12.39 0 0 0-12.846-12.707c-7.235 0-12.848 5.194-12.848 12.707C72.3 49.62 77.727 55 85.148 55m16.278-.464h4.638v-14.1c0-3.989 2.55-6.632 6.678-6.632 3.8 0 5.38 2.18 5.38 6.168v14.564h4.637V39.093c0-6.076-3.246-9.507-9.043-9.507a10.3 10.3 0 0 0-7.838 3.014l-.324-2.55h-4.128zm46.562.464c2.969 0 5.287-.556 7.05-1.994a7.13 7.13 0 0 0 2.55-5.7 6.01 6.01 0 0 0-3.014-5.427 14.9 14.9 0 0 0-5.009-1.437 32 32 0 0 1-5.333-.974 2.446 2.446 0 0 1-1.855-2.505c0-2.086 1.809-3.617 4.869-3.617 2.876 0 5.1 1.391 5.38 4.22h4.406c-.278-5.333-4.081-7.976-9.786-7.976-5.24 0-9.321 2.736-9.321 7.93a5.465 5.465 0 0 0 3.107 5.287 19.2 19.2 0 0 0 5.519 1.438c1.559.173 3.096.5 4.591.974a2.48 2.48 0 0 1 1.9 2.643c0 2.272-2.179 3.386-5.055 3.386-3.478 0-5.843-1.3-6.307-4.267h-4.5c.466 5.793 4.826 8.019 10.808 8.019m-20.173-.464h4.591V30.05h-4.591zM85.2 50.826c-4.731 0-8.117-3.478-8.117-8.58 0-4.776 3.015-8.487 8.07-8.487 4.962 0 8.116 3.664 8.116 8.487 0 4.916-3.292 8.58-8.069 8.58M8.718 44.843l1.482-3.617h11.04l1.437 3.617z"/></g><defs><clipPath id="a"><path fill="#fff" d="M0 0h158v78H0z"/></clipPath></defs></svg>
